X:50
T:Miss Dirrom's Strathspey
S:Petrie's Third Collection of Strathspey Reels and Country Dances &c.
Z:Steve Wyrick <sjwyrick'at'gmail'dot'com>, 7/31/05
N:Petrie's Third Collection, page 20
L:1/8
M:C
R:Strathspey
K:D
"^Slow"
D<A,D<F D<A,D<F|E>DE<F A/A/A A2|B>Ad>A B/c/d/B/ AF|E>DE<F D/D/D D2:|(A/B//c//)
d>AF>A d/c/d/e/ fd|B>AB<d e/e/e e2|fa-af g>fe<d|B>d A>F D/D/D D(A/B//c//)|
d>AF<A d/c/d/e/ fd|B>AB<d e/e/e e2|d<fA<F G>FE<D|E>DE>F D/D/D D2|]
